X: 1
T: Cumming   [C]
C: Nan Main
B: Originally Ours
Z: 2019 John Chambers <jc:trillian.mit.edu>
R: reel
M: 4/4
L: 1/8
K: C
"A"[|]A2 |\
"C"GA cd e2 ag | "G7"f2 dc B3 G |\
"F"Ac "G7"Bd "Am"ce "D(m)"da | "G7"g2 de "C"c2 :|
"B1"[|]e2 |\
"Am"ef ea "E7"^g2 ef | "E7"ef eb "Am"a2 ab |\
"Am"c'2 ba "Dm"f2 af | "E7"e2 Bc "Am"A2 |]
"B2"[|]"G7"fg |\
"C"ga gc' "G7"b2 ga | "G"ga gd' "C"c'3c' |\
"Dm"af db "C"ge ca | "G7"fd Bg "C"c2 |]
